!!!!SEGMENT: Mlu2005-O_dulcis_amica.krn
!!!id: Mlu2005
!!!AGN: Motet
!!!SCT: Sherr (1989)
!!!voices: 5
!!!COM: Pierre Moulu
!!!OTL: O dulcis amica
**kern	**kern	**kern	**kern	**kern
*part5	*part4	*part3	*part2	*part1
*staff5	*staff4	*staff3	*staff2	*staff1
*I"Bassus	*I"Tenor	*I"Altus II	*I"Altus I	*I"Superius
*I'B	*I'T	*I'A. II	*I'A. I	*I'S
*clefF4	*clefGv2	*clefGv2	*clefGv2	*clefG2
*k[b-]	*k[b-]	*k[b-]	*k[b-]	*k[b-]
*F:	*F:	*F:	*F:	*F:
*M2/1	*M2/1	*M2/1	*M2/1	*M2/1
*met(C|)	*met(C|)	*met(C|)	*met(C|)	*met(C|)
!!Section: Prima pars: O dulcis amica
!!!OMD: Prima pars: O dulcis amica
=1	=1	=1	=1	=1
0C	0r	1r	0r	0r
.	.	[1c	.	.
=2	=2	=2	=2	=2
1AA	0r	1c]	0r	0r
1FF	.	1A	.	.
=3	=3	=3	=3	=3
2FF	0r	1F	0r	0r
2FF	.	.	.	.
[1BB-y	.	2F	.	.
.	.	2F	.	.
=4	=4	=4	=4	=4
2BB-]	0r	1B-y	0r	0r
2AA	.	.	.	.
1GG	.	2B-y	.	.
.	.	4A	.	.
.	.	4G	.	.
=5	=5	=5	=5	=5
0FF	0c	0A	[0f	1r
.	.	.	.	[1cc
=6	=6	=6	=6	=6
0r	1A	1r	0f]	1cc]
.	1F	1c	.	[1a
=7	=7	=7	=7	=7
1r	2F	2c	[0f	1a]
.	2F	2c	.	.
1BB-y	1B-y	[1d	.	[1f
=8	=8	=8	=8	=8
2BB-y	2B-y	2d]	0f]	1f]
2BB-y	4A	4c	.	.
.	4G	4B-y	.	.
1FF	1A	4c	.	1f
.	.	4B-y	.	.
.	.	4A	.	.
.	.	4G	.	.
=9	=9	=9	=9	=9
1.BB-y	2.B-y	1F	0d	1f
.	4A	.	.	.
.	2G	1r	.	[1b-y
2AA	2F	.	.	.
=10	=10	=10	=10	=10
2GG	2G	1r	0d	2b-]
2FF	2A	.	.	2a
1GG	1B-y	1D	.	1g
=11	=11	=11	=11	=11
0D	1A	2.F	[0d	2f
.	.	.	.	2.a
.	.	4G	.	.
.	2r	1A	.	.
.	.	.	.	4g
.	2A	.	.	[2f
=12	=12	=12	=12	=12
1BB-y	1B-y	1D	1d]	2f]
.	.	.	.	4e
.	.	.	.	4d
1C	2A	1r	1c	1e
.	[2G	.	.	.
=13	=13	=13	=13	=13
1GG	2G]	2.D	0d	1r
.	4F	.	.	.
.	4E	4E	.	.
1r	1D	4F	.	1a
.	.	4G	.	.
.	.	[2A	.	.
=14	=14	=14	=14	=14
0r	2r	2A]	0e	2a
.	1.c	4G	.	2a
.	.	4F	.	.
.	.	1E	.	1g
=15	=15	=15	=15	=15
0r	1F	2D	[0f	2a
.	.	1A	.	1cc
.	2r	.	.	.
.	2c	2F	.	4b-y
.	.	.	.	4a
=16	=16	=16	=16	=16
1r	1d	2.B-y	1f]	1b-y
.	.	4A	.	.
1C	2.c	2G	1e	1cc
.	.	2G	.	.
.	4B-y	.	.	.
=17	=17	=17	=17	=17
2.D	4A	1F	[0d	1r
.	4G	.	.	.
.	2.A	.	.	.
4E	.	.	.	.
4F	.	2.D	.	[1f
4G	4G	.	.	.
[2F	2B-y	.	.	.
.	.	4E	.	.
=18	=18	=18	=18	=18
2F]	1A	4F	0d]	2f]
.	.	4G	.	.
2D	.	1F	.	2f
2.F	2D	.	.	1f
.	[2F	4E	.	.
4G	.	4D	.	.
=19	=19	=19	=19	=19
1A	2F]	2.F	[0c	2g
.	4E	.	.	2.a
.	4D	4G	.	.
2r	2.F	2A	.	.
.	.	.	.	4g
[2A	.	[2F	.	4a
.	4G	.	.	4b-y
=20	=20	=20	=20	=20
4A]	1A	2F]	0c_	2.cc
4G	.	.	.	.
1F	.	4E	.	.
.	.	4D	.	4b-y
.	2.c	1C	.	2a
2E	.	.	.	[2g
.	4B-y	.	.	.
=21	=21	=21	=21	=21
1F	2A	2r	0c_	4g]
.	.	.	.	4f
.	2F	2A	.	1f
2C	2G	2.c	.	.
[2G	2C	.	.	2e
.	.	4B-y	.	.
=22	=22	=22	=22	=22
4G]	2.F	2A	0c]	1f
4F	.	.	.	.
1F	.	2F	.	.
.	8EL	.	.	.
.	8DJ	.	.	.
.	2C	1G	.	1r
2E	[2c	.	.	.
=23	=23	=23	=23	=23
1.F	4c]	1F	[0f	2.a
.	4B-y	.	.	.
.	4A	.	.	.
.	4G	.	.	4b-y
.	2A	1r	.	2cc
2BB-y	2F	.	.	[2dd
=24	=24	=24	=24	=24
1.F	2.A	2.F	0f]	4dd]
.	.	.	.	4cc
.	.	.	.	1cc
.	4B-y	4G	.	.
.	2c	2A	.	.
2BB-y	[2d	2B-y	.	2b-y
=25	=25	=25	=25	=25
1.F	4d]	2.A	0f	4cc
.	4c	.	.	4b-y
.	1c	.	.	4a
.	.	4B-y	.	4g
.	.	2c	.	2a
2BB-y	2B-y	[2d	.	2b-y
=26	=26	=26	=26	=26
4F	1c	4d]	0f	1.a
4E	.	4c	.	.
4D	.	1c	.	.
4C	.	.	.	.
1D	1r	.	.	.
.	.	2BnXi	.	4g
.	.	.	.	4f
=27	=27	=27	=27	=27
[0C	2r	1c	0e	2a
.	1G	.	.	2.g
.	.	2c	.	.
.	.	.	.	4f
.	2A	[2c	.	4e
.	.	.	.	4d
=28	=28	=28	=28	=28
1C]	2G	2c]	0e	1c
.	1c	4B-y	.	.
.	.	4A	.	.
1r	.	1G	.	2r
.	2B-y	.	.	2g
=29	=29	=29	=29	=29
2r	2c	0F	0f	2.a
2D	2d	.	.	.
.	.	.	.	4g
2F	4c	.	.	4a
.	4B-y	.	.	4b-y
2F	4A	.	.	[2cc
.	8GL	.	.	.
.	8FJ	.	.	.
=30	=30	=30	=30	=30
2.C	2G	0r	0e	2cc]
.	2.c	.	.	4b-y
4D	.	.	.	4a
4E	.	.	.	2g
4F	4B-y	.	.	.
[2G	4G	.	.	[2b-y
.	4A	.	.	.
=31	=31	=31	=31	=31
2G]	4B-y	0r	[0d	2b-]
.	4G	.	.	.
4F	1A	.	.	4a
4E	.	.	.	4g
1D	.	.	.	2f
.	4G	.	.	[2b-y
.	4F	.	.	.
=32	=32	=32	=32	=32
1r	1G	2r	0d]	2b-]
.	.	2B-y	.	4a
.	.	.	.	4g
1D	1F	4A	.	2a
.	.	4G	.	.
.	.	4A	.	4g
.	.	4B-y	.	4f
=33	=33	=33	=33	=33
2.A	0r	2.c	[0c	2e
.	.	.	.	4c
4G	.	4B-y	.	4d
2F	.	2A	.	4e
.	.	.	.	4f
2E	.	2G	.	[2g
=34	=34	=34	=34	=34
2F	0r	2A	0c]	4g]
.	.	.	.	4f
2FF	.	4G	.	1f
.	.	4F	.	.
1C	.	2G	.	.
.	.	4F	.	2e
.	.	4E	.	.
=35	=35	=35	=35	=35
0BB-y	0B-y	[0D	[0d	[0f
=36	=36	=36	=36	=36
0r	1B-y	0D]	0d]	0f]
.	1A	.	.	.
=37	=37	=37	=37	=37
0r	1.G	0r	[0d	0b-y
.	4F	.	.	.
.	4E	.	.	.
=38	=38	=38	=38	=38
0r	2D	0r	0d]	1b-y
.	1G	.	.	.
.	.	.	.	1a
.	2F#i	.	.	.
=39	=39	=39	=39	=39
0C	1G	0r	0e	0g
.	1r	.	.	.
=40	=40	=40	=40	=40
1BB-y	0d	0B-y	[0f	0r
[1BB-y	.	.	.	.
=41	=41	=41	=41	=41
1BB-]	2d	1B-y	0f]	0r
.	2B-y	.	.	.
1FF	[1c	1A	.	.
=42	=42	=42	=42	=42
1C	2c]	2G	0e	0r
.	4B-y	1c	.	.
.	4A	.	.	.
2C	1G	.	.	.
2C	.	2c	.	.
=43	=43	=43	=43	=43
1D	1F	0A	[0f	0r
1F	2.A	.	.	.
.	4B-y	.	.	.
=44	=44	=44	=44	=44
1F	1c	1A	0f]	0r
2F	2A	2c	.	.
[2D	[2B-y	4F	.	.
.	.	4G	.	.
=45	=45	=45	=45	=45
2D]	4B-]	4A	0r	0r
.	4A	4B-y	.	.
2C	1A	2c	.	.
1BB-y	.	1d	.	.
.	2G	.	.	.
=46	=46	=46	=46	=46
1F	2.A	2c	0f	1a
.	.	2F	.	.
.	4B-y	.	.	.
1r	[1c	2F	.	2a
.	.	2F	.	2a
=47	=47	=47	=47	=47
0r	0c]	1C	0e	2g
.	.	.	.	2g
.	.	1C	.	2a
.	.	.	.	[2cc
=48	=48	=48	=48	=48
0r	0r	1F	0d	2cc]
.	.	.	.	4bnXi
.	.	.	.	4a
.	.	1G	.	1bni
=49	=49	=49	=49	=49
2.FF	0r	2.A	[0c	0cc
4GG	.	4G	.	.
4AA	.	2F	.	.
4BB-y	.	.	.	.
4C	.	2E	.	.
4D	.	.	.	.
=50	=50	=50	=50	=50
2E	0r	2.C	1c]	0r
2F	.	.	.	.
.	.	4D	.	.
2G	.	2E	1B-y	.
[2F	.	2F	.	.
=51	=51	=51	=51	=51
2F]	1r	1G	1B-y	1r
2E	.	.	.	.
2F	1c	2F	2A	2f
2C	.	[2c	2G	2e
=52	=52	=52	=52	=52
2.F	1c	4c]	1A	1.f
.	.	4B-y	.	.
.	.	4A	.	.
4E	.	4G	.	.
2D	1d	2F	1B-y	.
2BB-y	.	[2G	.	4e
.	.	.	.	4d
=53	=53	=53	=53	=53
1.C	1.c	4G]	1G	1.e
.	.	4F	.	.
.	.	4E	.	.
.	.	4D	.	.
.	.	2C	1F	.
2D	2A	[2F	.	2f
=54	=54	=54	=54	=54
1BB-y	2.B-y	4F]	0B-y	2d
.	.	4E	.	.
.	.	4D	.	1f
.	4c	4C	.	.
1r	2d	1BB-y	.	.
.	2G	.	.	4e
.	.	.	.	4d
=55	=55	=55	=55	=55
0F	2A	1r	0A	1c
.	1.c	.	.	.
.	.	2r	.	2r
.	.	[2F	.	[2f
=56	=56	=56	=56	=56
1D	2d	4F]	0F	2f]
.	.	4G	.	.
.	2c	1A	.	2f
1D	2.A	.	.	2e
.	.	2D	.	[2f
.	4B-y	.	.	.
=57	=57	=57	=57	=57
1C	1c	2E	[0G	2f]
.	.	2C	.	1e
1r	1C	1r	.	.
.	.	.	.	4d
.	.	.	.	4c
=58	=58	=58	=58	=58
2.GG	2.D	0r	0G]	1B-y
4AA	4C	.	.	.
2BB-y	2D	.	.	1r
[2C	4C	.	.	.
.	4D	.	.	.
=59	=59	=59	=59	=59
4C]	4E	2r	[0G	2.c
4D	4F	.	.	.
4E	2G	2.C	.	.
4F	.	.	.	4d
2G	2C	.	.	4e
.	.	4D	.	4f
[2C	[2c	4E	.	[2g
.	.	4F	.	.
=60	=60	=60	=60	=60
4C]	4c]	2G	0G]	4g]
4FF	4A	.	.	4f
2BB-y	2d	2D	.	1f
1C	1c	1E	.	.
.	.	.	.	2e
=61	=61	=61	=61	=61
[0FF	1A	0C	[0F	1f
.	2r	.	.	2r
.	2c	.	.	2a
=62	=62	=62	=62	=62
0FF]	2d	0r	0F_	2a
.	2c	.	.	2.cc
.	2.f	.	.	.
.	.	.	.	4b-y
.	.	.	.	4a
.	4e	.	.	4g
=63	=63	=63	=63	=63
2r	4d	2r	0F_	2a
.	4c	.	.	.
2BB-y	1d	2D	.	1f
2BB-y	.	2D	.	.
2BB-y	4c	2D	.	4e
.	4B-y	.	.	4d
=64	=64	=64	=64	=64
2.FF	1A	2.F	0F_	1c
4GG	.	4E	.	.
2AA	1r	4D	.	1r
.	.	4C	.	.
[2BB-y	.	[2D	.	.
=65	=65	=65	=65	=65
2BB-]	1B-y	2D]	0F_	0f
4AA	.	4C	.	.
4GG	.	4BB-y	.	.
[1FF	1c	1AA	.	.
=66	=66	=66	=66	=66
1FF]	1c	1A	0F_	2f
.	.	.	.	2f
[1BB-y	[1d	2B-y	.	1f
.	.	2B-y	.	.
=67	=67	=67	=67	=67
1BB-]	2d]	2B-y	0F_	1.b-y
.	2e	2B-y	.	.
2BB-y	2.f	[1F	.	.
2BB-y	.	.	.	4a
.	4e	.	.	4g
=68	=68	=68	=68	=68
1BB-y	2d	2F]	0F_	1.f
.	2c	2E	.	.
1BB-y	1B-y	1D	.	.
.	.	.	.	2g
=69	=69	=69	=69	=69
[0FF	[0c	[0C	0F_	[0a
=70	=70	=70	=70	=70
0FF;]	0c;]	0C;]	0F;]	0a;]
=71	=71	=71	=71	=71
0BB-y	0B-y	0D	0d	0f
=72	=72	=72	=72	=72
1BB-y	1B-y	1F	1d	1f
1D	1A	1F	1d	1f
=73	=73	=73	=73	=73
1C	1c	1E	1e	1g
1FF	2A	1C	[1f	1a
.	[2c	.	.	.
=74	=74	=74	=74	=74
0GG	2c]	0G	2f]	1.b-y
.	4B-y	.	4e	.
.	4A	.	4d	.
.	1B-y	.	1e	.
.	.	.	.	4a
.	.	.	.	4g
=75	=75	=75	=75	=75
1FF	1c	1C	0f	0a
1F	1A	1D	.	.
=76	=76	=76	=76	=76
1E	1G	1r	1r	1r
1D	1F	1F	1f	1a
=77	=77	=77	=77	=77
1r	2G	1C	1e	1g
.	2A	.	.	.
1BB-y	1B-y	1D	1d	2f
.	.	.	.	2g
=78	=78	=78	=78	=78
1AA	2c	2E	1c	1a
.	2A	2F	.	.
1GG	2d	2G	[1B-y	2b-y
.	[2G	4F	.	[2dd
.	.	4E	.	.
=79	=79	=79	=79	=79
1GG	4G]	2D	2B-]	2dd]
.	4A	.	.	.
.	2B-y	2G	4A	4cc
.	.	.	4G	4b-y
1FF	2A	2C	2.A	1cc
.	[2c	[2F	.	.
.	.	.	4B-y	.
=80	=80	=80	=80	=80
1C	4c]	2F]	2G	2r
.	4B-y	.	.	.
.	2c	2E	2A	2cc
2BB-y	[1F	2.F	1B-y	2dd
4AA	.	.	.	2b-y
4GG	.	4G	.	.
=81	=81	=81	=81	=81
2FF	2F]	1.A	1A	1cc
1F	2G	.	.	.
.	2A	.	1F	2cc
4E	2B-y	4G	.	[2cc
4D	.	4F	.	.
=82	=82	=82	=82	=82
0C	0c	4E	0G	2cc]
.	.	4D	.	.
.	.	1F	.	4b-y
.	.	.	.	4a
.	.	.	.	1g
.	.	2E	.	.
=83	=83	=83	=83	=83
[0FF	[0c	[0F	[0F	[0a
=84	=84	=84	=84	=84
0FF;]	0c;]	0F;]	0F;]	0a;]
=85	=85	=85	=85	=85
0D	0A	0F	0d	0f
=86	=86	=86	=86	=86
1BB-y	1B-y	1F	1d	1f
1D	1A	1F	1d	1f
=87	=87	=87	=87	=87
1C	1c	1E	1e	1g
1FF	2A	1C	[1f	1a
.	[2c	.	.	.
=88	=88	=88	=88	=88
0GG	2c]	0G	2f]	1.b-y
.	4B-y	.	4e	.
.	4A	.	4d	.
.	1B-y	.	1e	.
.	.	.	.	4a
.	.	.	.	4g
=89	=89	=89	=89	=89
1FF	1c	1C	0f	0a
1F	1A	1D	.	.
=90	=90	=90	=90	=90
1E	1G	1r	1r	1r
1D	1F	1F	1f	1a
=91	=91	=91	=91	=91
1r	2G	1C	1e	1g
.	2A	.	.	.
1BB-y	1B-y	1D	1d	2f
.	.	.	.	2g
=92	=92	=92	=92	=92
1AA	2c	2E	1c	1a
.	2A	2F	.	.
1GG	2d	2G	[1B-y	2b-y
.	[2G	4F	.	[2dd
.	.	4E	.	.
=93	=93	=93	=93	=93
1GG	4G]	2D	2B-]	2dd]
.	4A	.	.	.
.	2B-y	2G	4A	4cc
.	.	.	4G	4b-y
1FF	2A	2C	2.A	1cc
.	[2c	[2F	.	.
.	.	.	4B-y	.
=94	=94	=94	=94	=94
1C	4c]	2F]	2G	2r
.	4B-y	.	.	.
.	2c	2E	2A	2cc
2BB-y	[1F	2.F	1B-y	2dd
4AA	.	.	.	2b-y
4GG	.	4G	.	.
=95	=95	=95	=95	=95
2FF	2F]	1.A	1A	2cc
1F	2G	.	.	2cc
.	2A	.	1F	2.cc
4E	2B-y	4G	.	.
4D	.	4F	.	4dd
=96	=96	=96	=96	=96
[0C	[0c	[0E	[0G	2ee
.	.	.	.	1cc
.	.	.	.	4b-y
.	.	.	.	4a
=97	=97	=97	=97	=97
0C_	0c_	0E_	0G_	[0g
=98	=98	=98	=98	=98
0C;]	0c;]	0E;]	0G;]	0g;]
=99	=99	=99	=99	=99
00FFl	00Al	00Cl	00Fl	00al
==	==	==	==	==
*-	*-	*-	*-	*-
!!!system-decoration: [*]
!!!RDF**kern: i = editorial accidental
!!!RDF**kern: l = terminal long
!!!ENC: Benjamin Ory
!!!END: 2023/11/14
!!!EED: Benjamin Ory
!!!EEV: 2023/11/14
!!!YEC: Copyright 2023 Benjamin Ory, All Rights Reserved
!!!ONB: Translated from MusicXML on 2023/11/14
